static/assets/icons/star.svg

<svg width="37" height="37" viewBox="0 0 37 37" fill="none" xmlns="http://www.w3.org/2000/svg">
<path d="M18.5 0L20.9715 2.89551L24.2168 0.905455L25.6726 4.42299L29.374 3.53319L29.6716 7.32842L33.4668 7.62597L32.577 11.3274L36.0945 12.7832L34.1045 16.0285L37 18.5L34.1045 20.9715L36.0945 24.2168L32.577 25.6726L33.4668 29.374L29.6716 29.6716L29.374 33.4668L25.6726 32.577L24.2168 36.0945L20.9715 34.1045L18.5 37L16.0285 34.1045L12.7832 36.0945L11.3274 32.577L7.62597 33.4668L7.32842 29.6716L3.53319 29.374L4.42299 25.6726L0.905455 24.2168L2.89551 20.9715L0 18.5L2.89551 16.0285L0.905455 12.7832L4.42299 11.3274L3.53319 7.62597L7.32842 7.32842L7.62597 3.53319L11.3274 4.42299L12.7832 0.905455L16.0285 2.89551L18.5 0Z" fill="#F8981D"/>
<path d="M13.3881 18.6639L16.1662 22.1518L23.6117 14.8491" stroke="white" stroke-width="1.46053"/>
</svg>

<svg xmlns="http://www.w3.org/2000/svg" width="37" height="37" fill="none"><path fill="#F8981D" d="m18.5 0 2.47 2.9 3.25-2 1.45 3.52 3.7-.89.3 3.8 3.8.3-.9 3.7 3.52 1.45-1.99 3.25L37 18.5l-2.9 2.47 2 3.25-3.52 1.45.89 3.7-3.8.3-.3 3.8-3.7-.9-1.45 3.52-3.25-1.99L18.5 37l-2.47-2.9-3.25 2-1.45-3.52-3.7.89-.3-3.8-3.8-.3.9-3.7L.9 24.22l1.99-3.25L0 18.5l2.9-2.47-2-3.25 3.52-1.45-.89-3.7 3.8-.3.3-3.8 3.7.9L12.78.9l3.25 1.99L18.5 0Z"/><path stroke="#fff" stroke-width="1.46" d="m13.39 18.66 2.78 3.5 7.44-7.31"/></svg>
